icons/medal-fill.svg

<svg xmlns="http://www.w3.org/2000/svg" width="24" height="24" fill="none"><g clip-path="url(#a)"><g><path fill="#121212" d="M12 7.00002C14.1217 7.00002 16.1566 7.84288 17.6569 9.34317C19.1571 10.8435 20 12.8783 20 15C20 17.1218 19.1571 19.1566 17.6569 20.6569C16.1566 22.1572 14.1217 23 12 23C9.87827 23 7.84344 22.1572 6.34315 20.6569C4.84285 19.1566 4 17.1218 4 15C4 12.8783 4.84285 10.8435 6.34315 9.34317C7.84344 7.84288 9.87827 7.00002 12 7.00002ZM12 10.5L10.677 13.18L7.72 13.61L9.86 15.695L9.355 18.641L12 17.25L14.645 18.64L14.14 15.695L16.28 13.609L13.323 13.179L12 10.5ZM13 1.99902L18 2.00002V5.00002L16.637 6.13802C15.5059 5.54461 14.2711 5.17486 13 5.04902V2.00002V1.99902ZM11 1.99902V5.04902C9.72935 5.17467 8.49482 5.54408 7.364 6.13702L6 5.00002V2.00002L11 1.99902Z"/></g></g><defs><clipPath id="a"><rect width="24" height="24" fill="white"/></clipPath></defs></svg>

<svg width="24" height="24" fill="none" xmlns="http://www.w3.org/2000/svg"><g clip-path="url(#a)"><path d="M12 7a8 8 0 1 1 0 16 8 8 0 0 1 0-16Zm0 3.5-1.323 2.68-2.957.43 2.14 2.085-.505 2.946L12 17.25l2.645 1.39-.505-2.945 2.14-2.086-2.957-.43L12 10.5Zm1-8.501L18 2v3l-1.363 1.138A9.935 9.935 0 0 0 13 5.049v-3.05Zm-2 0v3.05a9.935 9.935 0 0 0-3.636 1.088L6 5V2l5-.001Z" /></g><defs><clipPath id="a"><path fill="#fff" d="M0 0h24v24H0z"/></clipPath></defs></svg>
